X:1015
T:Baille de Panderu (CT 181)
R:Panderu
C:Tradicional
S:Música Tradicional Asturiana, (C) Tello & Tito. Asturies, 2001.
S:http://pagina.de/MusTradAst <telloytito@asturies.org>
N:Canción de Baille de Panderu, transcrito en Murias, ayuntamiento de Quirós.
O:Murias (Quirós)
A:Asturies
Z:Cancioneru de Torner 181
M:6/8
L:1/8
Q:3/8=88
W:Amores que te olvidaron, 
W:no los vuelvas a querer;
W:Amores que te olvidaron, 
W:no los vuelvas a querer;
W:que no son flores del campo
W:que vuelvan reverdecer.
K:G
|GGG Gdd|d2 d-d3|ccc Bcd|c6 :|
GGG GGG|c2 c (_BA)G|_B2 B (AG)F|G6||


